X:1
T:Wait, and Murmur Not
T:Wait, and Murmur Not
T:William James Kirkpatrick, 1875
T:William Henry Bellamy (1800-1866)
T:Public Domain Courtesy of the Cyber Hymnal™
T:Public Domain Courtesy of the Cyber Hymnal™
C:William James Kirkpatrick, 1875
Z:Public Domain
Z:Courtesy of the Cyber Hymnal™
%%score ( 1 2 ) ( 3 4 )
L:1/8
Q:1/4=103
M:4/4
K:C
V:1 treble 
V:2 treble 
V:3 bass 
V:4 bass 
V:1
 [EG]2 | [EG]3 [EG] [^D^F][EG][=FA][EG] | [Ec]6 [CE]2 | [DF]3 [CE] [B,D][FA][EG][DF] | %4
w: 1.~O|trou- bled heart, there is a|home Be-|yond the reach of toil and|
w: 2.~Yet|when bowed down be- neath the|load By|Heav’n al- lowed, thine earth- ly|
w: 3.~Toil|on, nor deem, tho’ sore it|be, One|sigh un- heard, one prayer for-|
 [CE]6 [EG]2 | [Ec]3 [Ec] [FB][Fd][Gc]G | [FA]6 [^DA]2 | [EG]3 [EG] [DB][DB][FA][FB] | [Ec]6 || %9
w: care; A|home where chang- es ne- ver|come: Who|would not fain be rest- ing|there?|
w: lot; Look|up! thou’lt reach that blest a-|bode; Wait,|meek- ly wait, and mur- mur|not.|
w: got; The|day of rest will dawn for|thee; Wait,|meek- ly wait, and mur- mur|not.|
"^Refrain" [EG]2 | [EG]6 [CE][EG] | [EG][DF][DF][DF] [DF]2 [DF]2 | [FB]6 [FA][FB] | %13
w: ||||
w: O|wait, meek- ly|wait, and mur- mur not, O|wait, meek- ly|
w: ||||
 [Ec][EG][EG][EG] [EG]2 [EG]2 | [Ge]6 [Gc]2 | [Fc]6 [FA]2 | [EG]3 [EG] [FB]2 (AB) | c6 |] %18
w: |||||
w: wait, and mur- mur not O|wait, O|wait, O|wait, and mur- mur *|not.|
w: |||||
V:2
 x2 | x8 | x8 | x8 | x8 | x7 G | x8 | x8 | x6 || x2 | x8 | x8 | x8 | x8 | x8 | x8 | x6 F2 | %17
 (EEFF E2) |] %18
V:3
 [C,G,]2 | [C,C]3 [C,C] [C,C][C,C][C,C][C,C] | [C,G,]6 [C,G,]2 | %3
w: ~|~ ~ ~ ~ ~ ~|~ ~|
 [G,,G,]3 [G,,G,] [G,,G,][G,,G,][G,,G,][G,,G,] | [C,G,]6 [C,C]2 | %5
w: ~ ~ ~ ~ ~ ~|~ ~|
 [C,G,]3 [C,G,] [D,G,][D,G,][E,G,][E,C] | [F,C]6 [^F,C]2 | [G,C]3 [G,D] G,G,G,G, | [C,G,]6 || %9
w: ~ ~ ~ ~ ~ ~|~ ~|~ ~ ~ ~ ~ ~|~|
 [C,C]2 | [C,C]2 [C,C][C,C] [C,C]2 [C,G,][C,G,] | [G,,G,][G,,B,][G,,B,][G,,B,] [G,,B,]2 [G,B,]2 | %12
w: ~|~ meek- ly wait, ~ ~|~ ~ ~ ~ ~ ~|
 [G,D]2 [G,D][G,D] [G,D]2 [G,D][G,D] | [C,C][C,C][C,C][C,C] [C,C]2 [C,C]2 | %14
w: ~ meek- ly wait, ~ ~|~ ~ ~ ~ ~ ~|
 [C,C]2 [C,C][C,C] [C,C]2 (G,_B,) | [F,A,]2 [F,A,][F,A,] [F,A,]2 [F,C]2 | %16
w: ~ meek- ly wait, ~ *|~ meek- ly wait, ~|
 [G,C]3 [G,C] [G,D]2 [G,D]2 | (CG,A,A, G,2) |] %18
w: ~ ~ ~ ~|~ * * * *|
V:4
 x2 | x8 | x8 | x8 | x8 | x8 | x8 | x4 G,G,G,G, | x6 || x2 | x8 | x8 | x8 | x8 | x6 E,2 | x8 | x8 | %17
 C,6 |] %18

